X:1
T:Haleluija
T:Haleluija 
T:Handel
C:Handel
%%score [ 1 ( 2 3 ) ( 4 5 ) ( 6 7 ) ]
L:1/8
Q:1/4=96
M:4/4
K:D
V:1 treble nm="Soprano" snm="S"
V:2 treble nm="Alto" snm="A"
V:3 treble 
V:4 treble-8 nm="Tenor" snm="T"
V:5 treble-8 
V:6 bass nm="Bass" snm="B"
V:7 bass 
V:1
"^3 maten" z8 | d3 A BA z2 | d3 c dc z d/d/ | dd z d/d/ dd z d | (c d2) c d2 z2 | e3 A fe z2 | %6
w: |Hal- le- lu- jah!|Hal- le- lu- jah! Hal- le-|lu- jah! Hal- le- lu- jah! Hal-|le- * lu- jah!|Hal- le- lu- jah!|
 e3 A fe z e/e/ | fe z e/e/ fe z e | fe d2 c2 z2 | A4 B2 c2 | dD d3 d c2 | B4 A2 z e/e/ | %12
w: Hal- le- lu- jah! Hal- le-|lu- jah! Hal- le- lu- jah! Hal-|le- * lu- jah!|for the Lord|God om- ni- po- tent|reign- eth! Hal- le-|
 dc z e/e/ dc z e/e/ | fe z e/e/ fe z2 | z8 | z8 | z4 z2 z d/d/ | dd z d/d/ dd z d/d/ | %18
w: lu- jah! Hal- le- lu- jah! Hal- le-|lu- jah! Hal- le- lu- jah!|||Hal- le-|lu- jah! Hal- le- lu- jah! Hal- le-|
 dd z d/d/ dd z2 | d4 e2 f2 | gG g3 g f2 | e4 d2 z d/d/ | cA z c/c/ dd/d/ ee | A2 z d/c/ BB z e | %24
w: lu- jah! Hal- le- lu- jah!|for the Lord|God om- ni- po- tent|reign- eth. Hal- le-|lu- jah! Hal- le- lu- jah! Hal- le- lu-|jah! Hal- le- lu- jah! Hal-|
 dc de/d/ cc/c/ ec | z A/A/ dA z c/c/ ec | z A/A/ fd z c/c/ dA | z B/B/ ee z c/c/ dd | %28
w: le- * lu- * * jah! Hal- le- lu- jah!|Hal- le- lu- jah! Hal- le- lu- jah!|Hal- le- lu- jah! Hal- le- lu- jah!|Hal- le- lu- jah! Hal- le- lu- jah!|
 d2 cc d2 d2 | d2 d2 d4 | z4 z2 A2 | A2 G2 F2 (E>D) | D8 | z4 F2 (E>D) | D6 f2 | e2 d2 d2 c2 | %36
w: Hal- le- lu- jah! Hal-|le- lu- jah!|The|king- dom of this *|world|is be- *|come the|king- dom of our|
 d3 c d2 d2 | c3 A B2 c2 | d4 z4 | z8 | z8 | z8 | z8 | z8 | z8 | z4 z2 d2 | a2 c2 f2 A2 | %47
w: Lord, and of His|Christ, and of his|Christ;|||||||and|He shall reign for|
 d2 cB c2 B>A | A4 A2 A2 | A8- | A8 | z2 A2 A2 A2 | A8- | A8 | z4 d2 d2 | d8- | d8- | d2 d2 e2 e2 | %58
w: ev- er and ev- * *|er, King of|Kings,||and Lord of|Lords,||King of|Kings,||* and Lord of|
 e8- | e8 | e4 f2 f2 | f8- | f8- | f3 f g2 g2 | g8- | g3 g fe fg | e4 z cde | A2 z2 z4 | z4 z2 A2 | %69
w: Lords,||* King of|Kings,||* and Lord of|Lords,|* and Lord- * of- *|Lords, and He shall|reign,|and|
 d2 F2 B2 D2 | G2 FE (F2 E>D) | D4 z4 | z2 z d gf z d | gf z2 z4 | z2 z d/d/ gf z d/d/ | %75
w: He shall reign for|ev- er and ev- * *|er,|for ev- er and-|ev- er,|Hal- le- lu- jah! Hal- le-|
 gf z A A2 d2 | f2 d2 d2 AA | c2 dd (d2 c2) | d2 z2 A2 A2 | d2 z A A2 A2 | d2 z2 A2 A2 | %81
w: lu- jah! and He shall|reign for ev- er, for|ev- er and ev- *|er, King of|Kings! and Lord of|Lords! King of|
 d2 z A A2 A2 | d2 z2 z2 A2 | d2 f2 B2 d2 | g2 fe e4 | d2 z2 d2 d2 | d2 z d d2 d2 | %87
w: Kings! and Lord of|Lords, and|He shall reign for|ev- er and ev-|er, King of|Kings! and Lord of|
 d2 z d/d/ dd z d/d/ | dd z d/d/ dd z d/d/ | dd z2 z2 d2 | d6 d2 | d8 |] %92
w: Lords! Hal- le- lu- jah! Hal- le-|lu- jah! Hal- le- lu- jah! Hal- le-|lu- jah! Hal-|le- lu-|jah!|
V:2
"^3 maten" z8 | x8 | x8 | x8 | x8 | x8 | x8 | x8 | x8 | x8 | x8 | x8 | x8 | x8 | x8 | x8 | x8 | %17
 x8 | x8 | z8 | x8 | x8 | x8 | x8 | x8 | x8 | x8 | x8 | x8 | x8 | x8 | x8 | x8 | x8 | x8 | x8 | %36
 x8 | x8 | x8 | z8 | z8 | z8 | z8 | x8 | x8 | x8 | x8 | x8 | x8 | x8 | x8 | x8 | x8 | x8 | x8 | %55
 x8 | x8 | x8 | x8 | x8 | x8 | x8 | x8 | x8 | x8 | x8 | x8 | x8 | x8 | x8 | x8 | x8 | x8 | x8 | %74
 x8 | x8 | x8 | x8 | x8 | x8 | x8 | x8 | x8 | x8 | x8 | x8 | x8 | x8 | x8 | x8 | x8 | x8 |] %92
V:3
 x8 | A3 A GF z2 | A3 A GF z A/A/ | BA z A/A/ BA z A | (GF) E2 F2 z2 | A3 A AA z2 | %6
w: |Hal- le- lu- jah!|Hal- le- lu- jah! Hal- le-|lu- jah! Hal- le- lu- jah! Hal-|le- * lu- jah!|Hal- le- lu- jah!|
 A3 A AA z A/A/ | AA z A/A/ AA z A | A3 ^G A2 z2 | A4 [B,B]2 [Cc]2 | [Dd]D [Dd]3 [Dd] [Cc]2 | %11
w: Hal- le- lu- jah! Hal- le-|lu- jah! Hal- le- lu- jah! Hal-|le- lu- jah!|for the Lord|God om- ni- po- tent|
 [B,B]4 [A,A]2 z A/A/ | AA z A/A/ AA z A/A/ | AA z A/A/ AA z2 | D4 E2 F2 | GG, G3 G F2 | %16
w: reign- eth! Hal- le-|lu- jah! Hal- le- lu- jah! Hal- le-|lu- jah! Hal- le- lu- jah!|for the Lord|God om- ni- po- tent|
 E4 D2 z A/A/ | BA z A/A/ BA z A/A/ | BA z A/A/ BA z2 | x8 | z4 z2 z A/A/ | GE AA/A/ AA/A/ FD | %22
w: reign- eth! Hal- le-|lu- jah! Hal- le- lu- jah! Hal- le-|lu- jah! Hal- le- lu- jah!||Hal- le-|lu- jah! Hal- le- lu- jah! Hal- le- lu- jah!|
 z E/E/ CA, z G/F/ E A/G/ | F2 z B/A/ ^GE A2 | A2 ^G2 A2 z E/E/ | AF z F/F/ EC z2 | D4 E2 F2 | %27
w: Hal- le- lu- jah! Hal- * le- lu- *|jah! Hal- le- lu- jah! Hal-|le- lu- jah! Hal- le-|lu- jah! Hal- le- lu- jah!|for the Lord|
 GG, G3 G F2 | E4 DA/A/ FD | z BBB A4 | z4 z2 F2 | E2 D2 D2 C2 | D8 | z2 D4 C2 | D6 A2 | %35
w: God om- ni- po- tent|reign- eth. Hal- le- lu- jah!|Hal- le- lu- jah!|The|king- dom of this|world|is be-|come the|
 A2 D2 F2 (E>D) | D3 E F2 ^G2 | A3 A =G2 G2 | A4 z4 | x8 | x8 | x8 | x8 | z2 A2 d2 F2 | %44
w: king- dom of our *|Lord, and of His|Christ, and of his|Christ;|||||and He shall|
 B2 D2 G2 FE | (F2 E>D) DAFD | z EAE z2 z C | (DB) A4 ^G2 | A2 E2 A2 A2 | A8- | A8 | z2 A2 A2 A2 | %52
w: reign for ev- er and|ev- * * er, for ev- er|and ev- er, for|ev- * er and|ev- er, King of|Kings,||and Lord of|
 A8- | A8- | A2 z2 z4 | z2 z A BA z A | BA z A/A/ BA z A/A/ | BA z2 z4 | z2 z E A^G z E | %59
w: Lords,|||for ev- er and|ev- er, Hal- le- lu- jah! Hal- le-|lu- jah!|for ev- er and|
 A^G z E/E/ AG z E/E/ | A^G z2 z4 | z2 z F B^A z F | B^A z F/F/ BA z F/F/ | B2 F2 z4 | z4 B2 B2 | %65
w: ev- er, Hal- le- lu- jah! Hal- le-|lu- jah!|for ev- er and|ev- er, Hal- le- lu- jah! Hal- le-|lu- jah!|King of|
 A3 A A2 A2 | A4 z4 | z4 z F^GA | DC DE/D/ CEA=G | F3 E D3 D | DCDD (D2 C2) | D4 D2 D2 | %72
w: Kings, and Lord of|Lords,|and He shall|reign, * * * * * and He shall|reign * * for|ev- * er and ev- *|er, King of|
 D2 z A BA z A | BA z D D2 D2 | D2 z A/A/ BA z A/A/ | BA z2 z2 A2 | d2 F2 B2 D2 | G2 FE E4 | %78
w: Kings, for ev- er and|ev- er, and Lord of|Lords, Hal- le- lu- jah! Hal- le-|lu- jah! and|He shall reign for|ev- er and ev-|
 F2 z2 F2 F>G | A2 z F F2 F>G | A2 z2 F2 F>G | A2 z F F2 F>G | A2 z2 z2 F2 | F2 F2 D2 A2 | %84
w: er, King of *|Kings! and Lord of *|Lords! King of *|Kings! and Lord of *|Lords, and|He shall reign for|
 A2 AA A4 | A2 z A BA z A | BA z A BA z A | BA z A/A/ BA z A/A/ | BA z A/A/ BA z A/A/ | %89
w: ev- er and ev-|er, for ev- er and|ev- er, for ev- er and|ev- er, Hal- le- lu- jah! Hal- le-|lu- jah! Hal- le- lu- jah! Hal- le-|
 BA z2 z2 F2 | G6 G2 | F8 |] %92
w: lu- jah! Hal-|le- lu-|jah!|
V:4
"^3 maten" z8 | x8 | x8 | x8 | x8 | x8 | x8 | x8 | x8 | x8 | x8 | x8 | x8 | x8 | x8 | x8 | x8 | %17
 x8 | x8 | x8 | x8 | x8 | x8 | x8 | x8 | x8 | x8 | x8 | x8 | x8 | x8 | x8 | x8 | x8 | x8 | x8 | %36
 x8 | x8 | x8 | z8 | x8 | x8 | x8 | x8 | x8 | x8 | x8 | x8 | x8 | x8 | x8 | x8 | x8 | x8 | x8 | %55
 x8 | x8 | x8 | x8 | x8 | x8 | x8 | x8 | x8 | x8 | x8 | x8 | x8 | x8 | x8 | x8 | x8 | x8 | x8 | %74
 x8 | x8 | x8 | x8 | x8 | x8 | x8 | x8 | x8 | x8 | x8 | x8 | x8 | x8 | x8 | x8 | x8 | x8 |] %92
V:5
 x8 | f3 d dd z2 | f3 d dd z d/d/ | gf z d/d/ gf z d | (e A2) A A2 z2 | c3 e dc z2 | %6
w: |Hal- le- lu- jah!|Hal- le- lu- jah! Hal- le-|lu- jah! Hal- le- lu- jah! Hal-|le- * lu- jah!|Hal- le- lu- jah!|
 c3 e dc z e/e/ | dc z e/e/ dc z e | defd e2 z2 | A4 B2 c2 | dD d3 d c2 | B4 A2 z A/A/ | %12
w: Hal- le- lu- jah! Hal- le-|lu- jah! Hal- le- lu- jah! Hal-|le- * * lu- jah!|for the Lord|God om- ni- po- tent|reign- eth! Hal- le-|
 fe z e/e/ fe z e/e/ | dc z e/e/ dc z2 | d4 e2 f2 | gG g3 g f2 | e4 d2 z d/d/ | %17
w: lu- jah! Hal- le- lu- jah! Hal- le-|lu- jah! Hal- le- lu- jah!|for the Lord|God om- ni- po- tent|reign- eth! Hal- le-|
 gf z d/d/ gf z d/d/ | gf z d/d/ gf z2 | z2 z d/d/ cA z d/d/ | BB z e/e/ cA d2 | d2 c2 df/f/ af | %22
w: lu- jah! Hal- le- lu- jah! Hal- le-|lu- jah! Hal- le- lu- jah!|Hal- le- lu- jah! Hal- le-|lu- jah! Hal- le- lu- jah! Hal-|le- lu- jah! Hal- le- lu- jah!|
 A4 B2 c2 | dD d3 d c2 | B4 Ae/e/ cA | z d/d/ fd z e/e/ cA | d4 e2 f2 | gG g3 g f2 | e4 d3 f | %29
w: for the Lord|God om- ni- po- tent|reign- eth. Hal- le- lu- jah!|Hal- le- lu- jah! Hal- le- lu- jah!|for the Lord|God om- ni- po- tent|reign- eth. Hal-|
 g3 g f4 | z4 z2 d2 | A2 D2 A3 A | A8 | z4 A2 (G>F) | F6 d2 | e2 g2 A3 A | A3 G A2 d2 | %37
w: le- lu- jah!|The|king- dom of this|world|is be- *|come the|king- dom of our|Lord, and of His|
 e3 d d2 e2 | f4 z4 | x8 | z4 z2 d2 | a2 c2 f2 A2 | d2 cB (c2 B>A) | A2 z2 z Add | d2 z B ecdd | %45
w: Christ, and of his|Christ;||and|He shall reign for|ev- er and ev- * *|er, and He shall|reign for ev- * er and|
 (d2 c2) d2 z2 | z4 z dcA | (f e2) f ee z e | e2 c2 z4 | z2 z e fe z e | fe z e/e/ fe z e/e/ | %51
w: ev- * er,|and He shall|reign * for ev- er and|ev- er,|for ev- er and|ev- er, Hal- le- lu- jah! Hal- le-|
 fe z2 z4 | z2 z e fe z e | fe z e/e/ fe z e/e/ | fe z2 z4 | z2 z d gf z d | gf z d/d/ gf z d/d/ | %57
w: lu- jah!|for ev- er and|ev- er, Hal- le- lu- jah! Hal- le-|lu- jah!|for ev- er and|ev- er, Hal- le- lu- jah! Hal- le-|
 gf z2 z4 | z2 z B cB z B | cB z B/B/ cB z B/B/ | cB z2 z4 | z2 z c dc z c | dc z c/c/ dc z c/c/ | %63
w: lu- jah!|for ev- er and|ev- er, Hal- le- lu- jah! Hal- le-|lu- jah!|for ev- er and|ev- er, Hal- le- lu- jah! Hal- le-|
 d2 d2 z4 | z4 d2 d2 | e3 e dc de | c4 z4 | z ABc FA A2- | A2 ^G2 A2 z2 | z Adc B3 A | G2 AB A4 | %71
w: lu- jah!|King of|Kings, and Lord * of *|Lords,|and He shall reign for ev-|* * er,|and He shall reign for|ev- er and ev-|
 A4 d2 d2 | d8- | d3 d d2 d2 | d8- | d2 z f f2 d2 | d2 d2 B2 AA | G2 AA A4 | A2 z2 d2 d>e | %79
w: er, King of|Kings,|* and Lord of|Lords,|* and He shall|reign for ev- er, for|ev- er and- ev-|er, King of *|
 f2 z d d2 d>e | f2 z2 d2 d>e | f2 z d d2 d>e | f2 z2 z2 d2 | d2 A2 B2 A2 | c2 dd (d2 c2) | %85
w: Kings! and Lord of *|Lords! King of *|Kings! and Lord of *|Lords, and|He shall reign for|ev- er and ev- *|
 f2 z d gf z d | gf z d gf z d | gf z d/d/ gf z d/d/ | gf z d/d/ gf z d/d/ | gf z2 z2 A2 | B6 B2 | %91
w: er, for ev- er and|ev- er, for ev- er and|ev- er, Hal- le- lu- jah! Hal- le-|lu- jah! Hal- le- lu- jah! Hal- le-|lu- jah! Hal-|le- lu-|
 A8 |] %92
w: jah!|
V:6
"^3 maten" z8 | x8 | x8 | x8 | x8 | x8 | x8 | x8 | x8 | x8 | x8 | x8 | x8 | x8 | x8 | x8 | x8 | %17
 x8 | x8 | z8 | z8 | x8 | x8 | x8 | x8 | x8 | x8 | x8 | x8 | x8 | x8 | x8 | x8 | x8 | x8 | x8 | %36
 x8 | x8 | x8 | x8 |"^(""^)" x8 | x8 | x8 | x8 | x8 | x8 | x8 | x8 | x8 | x8 | x8 | x8 | x8 | x8 | %54
 x8 | x8 | x8 | x8 | x8 | x8 | x8 | x8 | x8 | x8 | x8 | x8 | x8 | x8 | x8 | x8 | x8 | x8 | x8 | %73
 x8 | x8 | x8 | x8 | x8 | x8 | x8 | x8 | x8 | x8 | x8 | x8 | x8 | x8 | x8 | x8 | x8 | x8 | x8 |] %92
V:7
 x8 | D,3 F, G,D, z2 | D,3 F, G,D, z F,/F,/ | G,D, z F,/F,/ G,D, z F, | E,D,A,A, D,2 z2 | %5
w: |Hal- le- lu- jah!|Hal- le- lu- jah! Hal- le-|lu- jah! Hal- le- lu- jah! Hal-|le- * * lu- jah!|
 A,3 C DA, z2 | A,3 C DA, z C/C/ | DA, z C/C/ DA, z C | DC B,2 A,2 z2 | A,4 B,2 C2 | DD, D3 D C2 | %11
w: Hal- le- lu- jah!|Hal- le- lu- jah! Hal- le-|lu- jah! Hal- le- lu- jah! Hal-|le- * lu- jah!|for the Lord|God om- ni- po- tent|
 B,4 A,2 z C/C/ | DA, z C/C/ DA, z C/C/ | DA, z C/C/ DA, z2 | D,4 E,2 F,2 | G,G,, G,3 G, F,2 | %16
w: reign- eth! Hal- le-|lu- jah! Hal- le- lu- jah! Hal- le-|lu- jah! Hal- le- lu- jah!|for the Lord|God om- ni- po- tent|
 E,4 D,2 z F,/F,/ | G,D, z F,/F,/ G,D, z F,/F,/ | G,D, z F,/F,/ G,D, z2 | x8 | x8 | %21
w: reign- eth! Hal- le-|lu- jah! Hal- le- lu- jah! Hal- le-|lu- jah! Hal- le- lu- jah!|||
 z2 z A,/A,/ F,D, z2 | A,4 B,2 C2 | DD, D3 D C2 | B,4 A,2 z A,/A,/ | F,D, z D/D/ CA, z2 | %26
w: Hal- le- lu- jah!|for the Lord|God om- ni- po- tent|reign- eth. Hal- le-|lu- jah! Hal- le- lu- jah!|
 z2 z D/D/ CA, z D/D/ | B,G, z E,/E,/ A,A, z B,/B,/ | G,E, A,>G, F,F, z D/D/ | B,G,/G,/ B,C D4 | %30
w: Hal- le- lu- jah! Hal- le-|lu- jah! Hal- le- lu- jah! Hal- le-|lu- jah! Hal- le- lu- jah! Hal- le-|lu- jah! Hal- le- lu- jah!|
 z4 z2 D,2 | C,2 B,,2 A,,2 (G,>F,) | F,8 | z4 A,,3 A,, | D,6 D2 | C2 B,2 A,2 (G,>F,) | %36
w: The|king- dom of this *|world|is be-|come the|king- dom of our *|
 F,3 E, D,2 B,2 | A,3 F, G,2 E,2 | D,3 A, D2 F,2 | B,2 D,2 G,2 F,E, | TE,4 D,2 z2 | %41
w: Lord, and of His|Christ, and of his|Christ; and He shall|reign for ev- er and|ev- er,|
 z2 z A, DD, z F, | B,^G, A,2 z E,D,E, | C,A,=G,A, F,2 z F, | G,D, z2 z2 z G, | %45
w: for ev- er and|ev- * er, and He shall|reign, and He shall reign for|ev- er, for|
 A,A,, z A, F,D, z D | CA, z C DD, z F, | (B,^G,)A,D, E,E, z E, | C,2 A,,2 z4 | z2 z C DA, z C | %50
w: ev- er, for ev- er, for|ev- er and- ev- er, for|ev- * er, for ev- er and-|ev- er,|for ev- er and-|
 DA, z C/C/ DA, z C/C/ | DA, z2 z4 | z2 z C DA, z C | DA, z C/C/ DA, z C/C/ | DA, z2 z4 | %55
w: ev- er, Hal- le- lu- jah! Hal- le-|lu- jah!|for ev- er and-|ev- er, Hal- le- lu- jah! Hal- le-|lu- jah!|
 z2 z F, G,D, z F, | G,D, z F,/F,/ G,D, z F,/F,/ | G,D, z2 z4 | z2 z ^G, A,E, z G, | %59
w: for ev- er and-|ev- er, Hal- le- lu- jah! Hal- le-|lu- jah!|for ev- er and-|
 A,E, z ^G,/G,/ A,E, z G,/G,/ | A,E, z2 z4 | z2 z ^A, B,F, z A, | B,F, z ^A,/A,/ B,F, z A,/A,/ | %63
w: ev- er, Hal- le- lu- jah! Hal- le-|lu- jah!|for ev- er and-|ev- er, Hal- le- lu- jah! Hal- le-|
 B,2 B,,2 z4 | z4 B,2 B,2 | C3 C D2 D,2 | A,3 A,, A,2 C,2 | F,2 A,,2 D,2 C,C, | B,,4 A,,2 z2 | %69
w: lu- jah!|King of|Kings, and Lord of|Lords, and He shall|reign for ev- er and|ev- er,|
 z4 z D,G,F, | E,2 F,G, A,2 G,A, | F,2 D,2 D2 D2 | D2 z F, G,D, z F, | G,D, z D D2 D2 | %74
w: and He shall|reign for * ev- er and|ev- er, King of|Kings, for ev- er and|ev- er, and Lord- of-|
 D2 z F,/F,/ G,D, z F,/F,/ | G,D, z D, D2 F,2 | B,2 D,2 G,2 F,F, | E,2 D,D, A,4 | D,2 z2 D,2 D,2 | %79
w: Lords, Hal- le- lu- jah! Hal- le-|lu- jah! and He shall|reign for ev- er, for|ev- er and ev-|er, King of|
 D2 z D, D,2 D,2 | D2 z2 D,2 D,2 | D2 z D, D,2 D,2 | D2 z D, D2 F,2 | B,2 D,2 G,2 F,F, | %84
w: Kings! and Lord of|Lords! King of|Kings! and Lord of|Lords, and He shall|reign for ev- er and|
 E,2 D,D, A,4 | D,2 z F, G,D, z F, | G,D, z F, G,D, z F, | G,D, z F,/F,/ G,D, z F,/F,/ | %88
w: ev- er and ev-|er, for ev- er and|ev- er, for ev- er and|ev- er, Hal- le- lu- jah! Hal- le-|
 G,D, z F,/F,/ G,D, z F,/F,/ | G,D, z2 z2 D,2 | G,6 G,2 | D,8 |] %92
w: lu- jah! Hal- le- lu- jah! Hal- le-|lu- jah! Hal-|le- lu-|jah!|

